exports/public-expenditure-on-healthcare-by-country-income-groups_v1_850x600.svg

<svg xmlns="http://www.w3.org/2000/svg" version="1.1" style="background-color:#fff;-webkit-font-smoothing:antialiased" width="850" height="600" font-family="'Helvetica Neue',Helvetica,Arial,sans-serif" font-size="18" text-rendering="optimizeLegibility"><g class="ChartTab"><g class="HeaderView"><g opacity=".8" transform="matrix(.31 0 0 .31 770 15)"><a xmlns:xlink="http://www.w3.org/1999/xlink" xlink:href="https://ourworldindata.org" target="_blank"><g><path fill="#1B2543" d="M0 0h211.2v130.1H0z"/><path fill="#E63912" d="M0 112.2h211.2v17.9H0z"/><g><path fill="none" d="M1.2 12.3h210.2v99.2H1.2z"/><path fill="#FFF" d="M37.8 32.2c0 12.7-7.7 19.4-17.1 19.4-9.7 0-16.6-7.5-16.6-18.7 0-11.7 7.3-19.3 17.1-19.3 10.1.1 16.6 7.7 16.6 18.6zm-28.6.6c0 7.9 4.3 14.9 11.8 14.9 7.5 0 11.8-6.9 11.8-15.3 0-7.3-3.8-14.9-11.8-14.9-7.9 0-11.8 7.3-11.8 15.3zM62.7 43.8c0 2.7.1 5.1.2 7.2h-4.3l-.3-4.3h-.1c-1.3 2.1-4 4.9-8.8 4.9-4.2 0-9.1-2.3-9.1-11.6V24.6h4.8v14.6c0 5 1.5 8.4 5.9 8.4 3.2 0 5.5-2.2 6.3-4.4.3-.7.4-1.6.4-2.5V24.6h4.8v19.2zM67.3 32.8c0-3.1-.1-5.8-.2-8.2h4.2l.2 5.2h.2c1.2-3.5 4.1-5.8 7.3-5.8.5 0 .9.1 1.4.2v4.5c-.5-.1-1-.2-1.6-.2-3.4 0-5.8 2.6-6.5 6.2-.1.7-.2 1.4-.2 2.2V51h-4.8V32.8zM95.4 51L86 14.2h5l4.4 18.6c1.1 4.6 2.1 9.2 2.7 12.7h.1c.6-3.7 1.8-8 3-12.8l4.9-18.5h5l4.5 18.7c1 4.4 2 8.7 2.6 12.6h.1c.8-4 1.8-8.1 3-12.7l4.9-18.5h4.9L120.6 51h-5L111 31.9c-1.1-4.7-1.9-8.3-2.4-12h-.1c-.7 3.7-1.5 7.3-2.8 12L100.4 51h-5zM154.9 37.6c0 9.8-6.8 14-13.2 14-7.2 0-12.7-5.2-12.7-13.6 0-8.8 5.8-14 13.1-14 7.7 0 12.8 5.5 12.8 13.6zm-21 .3c0 5.8 3.3 10.1 8 10.1 4.6 0 8-4.3 8-10.3 0-4.5-2.2-10.1-7.9-10.1s-8.1 5.2-8.1 10.3zM158.2 32.8c0-3.1-.1-5.8-.2-8.2h4.2l.2 5.2h.2c1.2-3.5 4.1-5.8 7.3-5.8.5 0 .9.1 1.4.2v4.5c-.5-.1-1-.2-1.6-.2-3.4 0-5.8 2.6-6.5 6.2-.1.7-.2 1.4-.2 2.2V51h-4.8V32.8zM173.5 12.3h4.8V51h-4.8V12.3zM206.5 12.3v31.9c0 2.3.1 5 .2 6.8h-4.3l-.2-4.6h-.2c-1.5 2.9-4.7 5.2-9 5.2-6.4 0-11.3-5.4-11.3-13.4-.1-8.8 5.4-14.2 11.9-14.2 4 0 6.8 1.9 8 4h.1V12.3h4.8zm-4.8 23.1c0-.6-.1-1.4-.2-2a7 7 0 00-6.9-5.6c-5 0-7.9 4.4-7.9 10.2 0 5.3 2.6 9.8 7.8 9.8 3.2 0 6.2-2.1 7.1-5.7.2-.7.2-1.3.2-2.1v-4.6zM42.8 64c.1 1.6-1.1 2.9-3.1 2.9-1.7 0-2.9-1.3-2.9-2.9 0-1.7 1.3-3 3-3 1.9 0 3 1.3 3 3zm-5.4 33.8V71.4h4.8v26.4h-4.8zM47.5 78.6c0-2.7-.1-5-.2-7.1h4.3l.3 4.4h.1c1.3-2.5 4.4-5 8.8-5 3.7 0 9.4 2.2 9.4 11.2v15.8h-4.8V82.6c0-4.3-1.6-7.8-6.1-7.8-3.2 0-5.6 2.2-6.5 4.9-.2.6-.3 1.4-.3 2.2v15.9h-4.8V78.6zM84 61.6c2.9-.4 6.3-.8 10.1-.8 6.8 0 11.7 1.6 14.9 4.6 3.3 3 5.2 7.3 5.2 13.2 0 6-1.9 10.9-5.3 14.3-3.4 3.4-9.1 5.3-16.3 5.3-3.4 0-6.2-.2-8.6-.4V61.6zm4.8 32.5c1.2.2 3 .3 4.8.3 10.2 0 15.7-5.7 15.7-15.6.1-8.7-4.9-14.2-14.9-14.2-2.5 0-4.3.2-5.6.5v29zM132.1 97.8l-.4-3.3h-.2a9.79 9.79 0 01-8.1 3.9c-5.4 0-8.1-3.8-8.1-7.6 0-6.4 5.7-9.9 15.9-9.8v-.5c0-2.2-.6-6.1-6-6.1-2.5 0-5 .8-6.9 2l-1.1-3.2c2.2-1.4 5.4-2.3 8.7-2.3 8.1 0 10.1 5.5 10.1 10.8v9.9c0 2.3.1 4.5.4 6.3h-4.3zm-.7-13.4c-5.3-.1-11.2.8-11.2 5.9 0 3.1 2.1 4.6 4.5 4.6 3.4 0 5.6-2.2 6.4-4.4.2-.5.3-1 .3-1.5v-4.6zM146.6 63.9v7.6h6.9v3.7h-6.9v14.2c0 3.3.9 5.1 3.6 5.1 1.3 0 2.2-.2 2.8-.3l.2 3.6c-.9.4-2.4.7-4.3.7-2.2 0-4-.7-5.2-2-1.4-1.4-1.9-3.8-1.9-6.9V75.1h-4.1v-3.7h4.1v-6.3l4.8-1.2zM171.4 97.8l-.4-3.3h-.2a9.79 9.79 0 01-8.1 3.9c-5.4 0-8.1-3.8-8.1-7.6 0-6.4 5.7-9.9 15.9-9.8v-.5c0-2.2-.6-6.1-6-6.1-2.5 0-5 .8-6.9 2l-1.1-3.2c2.2-1.4 5.4-2.3 8.7-2.3 8.1 0 10.1 5.5 10.1 10.8v9.9c0 2.3.1 4.5.4 6.3h-4.3zm-.7-13.4c-5.3-.1-11.2.8-11.2 5.9 0 3.1 2.1 4.6 4.5 4.6 3.4 0 5.6-2.2 6.4-4.4.2-.5.3-1 .3-1.5v-4.6z"/></g></g></a></g><a href="https://ourworldindata.org/grapher/public-expenditure-on-healthcare-by-country-income-groups" target="_blank"><text font-size="27" x="15" y="36.6" fill="#555"><tspan x="15" y="36.6">Public expenditure on healthcare by country income groups</tspan></text></a><text font-size="14.4" x="15" y="55.5" fill="#666"><tspan x="15" y="55.52">Public expenditure on healthcare as percent of total healthcare expenditure. Countries are grouped as per the World</tspan><tspan x="15" y="71.36">Bank&apos;s GDP per capita classification.</tspan></text></g><g class="LineChart"><defs><clipPath id="a"><path d="M42.56 0h830v925.2h-830z"/></clipPath></defs><g class="AxisBoxView"><g class="HorizontalAxis" fill="#666" text-anchor="middle" font-size="16.2"><text x="52.6" y="556.5">1995</text><text x="216" y="556.5">2000</text><text x="379.4" y="556.5">2005</text><text x="542.9" y="556.5">2010</text><text x="673.6" y="556.5">2014</text></g><g class="VerticalAxis" fill="#666" dominant-baseline="middle" text-anchor="end" font-size="16.2"><text x="47.56" y="535.3">0%</text><text x="47.56" y="465.7">10%</text><text x="47.56" y="396">20%</text><text x="47.56" y="326.4">30%</text><text x="47.56" y="256.8">40%</text><text x="47.56" y="187.2">50%</text><text x="47.56" y="117.5">60%</text></g><g class="AxisGridLines"><path stroke="#ccc" d="M52.56 535.3h621.07"/><path stroke="#ddd" stroke-dasharray="3,2" d="M52.56 465.7h621.07M52.56 396h621.07M52.56 326.4h621.07M52.56 256.8h621.07M52.56 187.2h621.07M52.56 117.5h621.07"/></g><g class="AxisGridLines" stroke="#ddd" stroke-dasharray="3,2"><path d="M52.6 535.3V93.9M216 535.3V93.9M379.4 535.3V93.9M542.9 535.3V93.9"/></g></g><g clip-path="url(#a)"><g class="HeightedLegend clickable"><g class="legendMark"><path fill="#2E8B57" d="M683.63 100.25h10v2.5h-10z"/><text font-size="14.4" x="698.6" y="105.8" fill="#333"><tspan x="698.63" y="105.82">High income</tspan></text></g><g class="legendMark"><path fill="orange" d="M683.63 151.35h10v2.5h-10z"/><text font-size="14.4" x="698.6" y="156.9" fill="#333"><tspan x="698.63" y="156.92">Upper middle income</tspan></text></g><g class="legendMark"><path fill="#B0171F" d="M683.63 239.15h10v2.5h-10z"/><text font-size="14.4" x="698.6" y="244.7" fill="#333"><tspan x="698.63" y="244.72">Low income</tspan></text></g><g class="legendMark"><path fill="#FF4500" d="M683.63 275.55h10v2.5h-10z"/><text font-size="14.4" x="698.6" y="281.1" fill="#333"><tspan x="698.63" y="281.12">Lower middle income</tspan></text></g></g><g class="Lines"><g class="key-Upper-middle-income_0"><path stroke="orange" stroke-linecap="round" d="M53 176l32 6 33-6 33 11 32 6 33 10 33 2 32-3 33-1 33-7 32 2 33-8 33-17 33-5 32-8 33 1 33-4 32-2 33 1 33-1" fill="none" stroke-width="1.5"/><g fill="orange"><circle cx="53" cy="176" r="2"/><circle cx="85" cy="182" r="2"/><circle cx="118" cy="176" r="2"/><circle cx="151" cy="187" r="2"/><circle cx="183" cy="193" r="2"/><circle cx="216" cy="203" r="2"/><circle cx="249" cy="205" r="2"/><circle cx="281" cy="202" r="2"/><circle cx="314" cy="201" r="2"/><circle cx="347" cy="194" r="2"/><circle cx="379" cy="196" r="2"/><circle cx="412" cy="188" r="2"/><circle cx="445" cy="171" r="2"/><circle cx="478" cy="166" r="2"/><circle cx="510" cy="158" r="2"/><circle cx="543" cy="159" r="2"/><circle cx="576" cy="155" r="2"/><circle cx="608" cy="153" r="2"/><circle cx="641" cy="154" r="2"/><circle cx="674" cy="153" r="2"/></g></g><g class="key-Lower-middle-income_0"><path stroke="#FF4500" stroke-linecap="round" d="M53 286l32 4 33 7 33 3 32-10 33 2 33 4 32 5 33 4 33-8 32 3 33-11 33-2 33-5h32l33 2h33l32-6 33-3 33 2" fill="none" stroke-width="1.5"/><g fill="#FF4500"><circle cx="53" cy="286" r="2"/><circle cx="85" cy="290" r="2"/><circle cx="118" cy="297" r="2"/><circle cx="151" cy="300" r="2"/><circle cx="183" cy="290" r="2"/><circle cx="216" cy="292" r="2"/><circle cx="249" cy="296" r="2"/><circle cx="281" cy="301" r="2"/><circle cx="314" cy="305" r="2"/><circle cx="347" cy="297" r="2"/><circle cx="379" cy="300" r="2"/><circle cx="412" cy="289" r="2"/><circle cx="445" cy="287" r="2"/><circle cx="478" cy="282" r="2"/><circle cx="510" cy="282" r="2"/><circle cx="543" cy="284" r="2"/><circle cx="576" cy="284" r="2"/><circle cx="608" cy="278" r="2"/><circle cx="641" cy="275" r="2"/><circle cx="674" cy="277" r="2"/></g></g><g class="key-Low-income_0"><path stroke="#B0171F" stroke-linecap="round" d="M53 297l32 6 33-2 33-11 32 9 33-9 33-34 32 9 33-11 33-2 32-13 33-9 33 22 33-6 32 8 33-1 33-7 32-4 33 5 33-7" fill="none" stroke-width="1.5"/><g fill="#B0171F"><circle cx="53" cy="297" r="2"/><circle cx="85" cy="303" r="2"/><circle cx="118" cy="301" r="2"/><circle cx="151" cy="290" r="2"/><circle cx="183" cy="299" r="2"/><circle cx="216" cy="290" r="2"/><circle cx="249" cy="256" r="2"/><circle cx="281" cy="265" r="2"/><circle cx="314" cy="254" r="2"/><circle cx="347" cy="252" r="2"/><circle cx="379" cy="239" r="2"/><circle cx="412" cy="230" r="2"/><circle cx="445" cy="252" r="2"/><circle cx="478" cy="246" r="2"/><circle cx="510" cy="254" r="2"/><circle cx="543" cy="253" r="2"/><circle cx="576" cy="246" r="2"/><circle cx="608" cy="242" r="2"/><circle cx="641" cy="247" r="2"/><circle cx="674" cy="240" r="2"/></g></g><g class="key-High-income_0"><path stroke="#2E8B57" stroke-linecap="round" d="M53 94l32 5 33 9 33 9 32 1 33 5 33 1 32 2 33-4 33-4 32-1 33-2 33-3 33-7 32-5h33l33-2 32 4h66" fill="none" stroke-width="1.5"/><g fill="#2E8B57"><circle cx="53" cy="94" r="2"/><circle cx="85" cy="99" r="2"/><circle cx="118" cy="108" r="2"/><circle cx="151" cy="117" r="2"/><circle cx="183" cy="118" r="2"/><circle cx="216" cy="123" r="2"/><circle cx="249" cy="124" r="2"/><circle cx="281" cy="126" r="2"/><circle cx="314" cy="122" r="2"/><circle cx="347" cy="118" r="2"/><circle cx="379" cy="117" r="2"/><circle cx="412" cy="115" r="2"/><circle cx="445" cy="112" r="2"/><circle cx="478" cy="105" r="2"/><circle cx="510" cy="100" r="2"/><circle cx="543" cy="100" r="2"/><circle cx="576" cy="98" r="2"/><circle cx="608" cy="102" r="2"/><circle cx="641" cy="102" r="2"/><circle cx="674" cy="102" r="2"/></g></g></g></g></g><g class="SourcesFooter" fill="#777"><g class="clickable" fill="#777"><text font-size="12.6" x="15" y="581.6"><tspan x="15" y="581.58">Source: World Bank – WDI</tspan></text></g><text font-size="12.6" x="528.1" y="581.6"><tspan x="528.06" y="581.58"><a target="_blank" href="https://ourworldindata.org/financing-healthcare/" fill="#777">OurWorldInData.org/financing-healthcare/</a> • <a href="http://creativecommons.org/licenses/by-sa/4.0/deed.en_US" target="_blank" fill="#777">CC BY-SA</a></tspan></text></g></g></svg>

<svg xmlns="http://www.w3.org/2000/svg" version="1.1" style="font-family: 'Helvetica Neue', Helvetica, Arial, sans-serif; font-size: 18px; background-color: white; text-rendering: optimizeLegibility; -webkit-font-smoothing: antialiased;" width="850" height="600"><g class="ChartTab"><g class="HeaderView"><g opacity="0.8" transform="translate(770, 15) scale(0.31)"><a xmlns:xlink="http://www.w3.org/1999/xlink" xlink:href="https://ourworldindata.org" target="_blank"><g><rect x="0" y="0" fill="#1B2543" width="211.2" height="130.1"/><rect x="0" y="112.2" fill="#E63912" width="211.2" height="17.9"/><g><rect x="1.2" y="12.3" fill="none" width="210.2" height="99.2"/><path fill="#FFFFFF" d="M37.8,32.2c0,12.7-7.7,19.4-17.1,19.4c-9.7,0-16.6-7.5-16.6-18.7c0-11.7,7.3-19.3,17.1-19.3 C31.3,13.7,37.8,21.3,37.8,32.2z M9.2,32.8c0,7.9,4.3,14.9,11.8,14.9c7.5,0,11.8-6.9,11.8-15.3c0-7.3-3.8-14.9-11.8-14.9 C13.1,17.5,9.2,24.8,9.2,32.8z"/><path fill="#FFFFFF" d="M62.7,43.8c0,2.7,0.1,5.1,0.2,7.2h-4.3l-0.3-4.3h-0.1c-1.3,2.1-4,4.9-8.8,4.9c-4.2,0-9.1-2.3-9.1-11.6 V24.6h4.8v14.6c0,5,1.5,8.4,5.9,8.4c3.2,0,5.5-2.2,6.3-4.4c0.3-0.7,0.4-1.6,0.4-2.5V24.6h4.8V43.8z"/><path fill="#FFFFFF" d="M67.3,32.8c0-3.1-0.1-5.8-0.2-8.2h4.2l0.2,5.2h0.2c1.2-3.5,4.1-5.8,7.3-5.8c0.5,0,0.9,0.1,1.4,0.2v4.5 c-0.5-0.1-1-0.2-1.6-0.2c-3.4,0-5.8,2.6-6.5,6.2c-0.1,0.7-0.2,1.4-0.2,2.2V51h-4.8V32.8z"/><path fill="#FFFFFF" d="M95.4,51l-9.4-36.8h5l4.4,18.6c1.1,4.6,2.1,9.2,2.7,12.7h0.1c0.6-3.7,1.8-8,3-12.8l4.9-18.5h5l4.5,18.7 c1,4.4,2,8.7,2.6,12.6h0.1c0.8-4,1.8-8.1,3-12.7l4.9-18.5h4.9L120.6,51h-5L111,31.9c-1.1-4.7-1.9-8.3-2.4-12h-0.1 c-0.7,3.7-1.5,7.3-2.8,12L100.4,51H95.4z"/><path fill="#FFFFFF" d="M154.9,37.6c0,9.8-6.8,14-13.2,14c-7.2,0-12.7-5.2-12.7-13.6c0-8.8,5.8-14,13.1-14 C149.8,24,154.9,29.5,154.9,37.6z M133.9,37.9c0,5.8,3.3,10.1,8,10.1c4.6,0,8-4.3,8-10.3c0-4.5-2.2-10.1-7.9-10.1 C136.3,27.6,133.9,32.8,133.9,37.9z"/><path fill="#FFFFFF" d="M158.2,32.8c0-3.1-0.1-5.8-0.2-8.2h4.2l0.2,5.2h0.2c1.2-3.5,4.1-5.8,7.3-5.8c0.5,0,0.9,0.1,1.4,0.2v4.5 c-0.5-0.1-1-0.2-1.6-0.2c-3.4,0-5.8,2.6-6.5,6.2c-0.1,0.7-0.2,1.4-0.2,2.2V51h-4.8V32.8z"/><path fill="#FFFFFF" d="M173.5,12.3h4.8V51h-4.8V12.3z"/><path fill="#FFFFFF" d="M206.5,12.3v31.9c0,2.3,0.1,5,0.2,6.8h-4.3l-0.2-4.6H202c-1.5,2.9-4.7,5.2-9,5.2 c-6.4,0-11.3-5.4-11.3-13.4c-0.1-8.8,5.4-14.2,11.9-14.2c4,0,6.8,1.9,8,4h0.1V12.3H206.5z M201.7,35.4c0-0.6-0.1-1.4-0.2-2 c-0.7-3.1-3.3-5.6-6.9-5.6c-5,0-7.9,4.4-7.9,10.2c0,5.3,2.6,9.8,7.8,9.8c3.2,0,6.2-2.1,7.1-5.7c0.2-0.7,0.2-1.3,0.2-2.1V35.4z"/><path fill="#FFFFFF" d="M42.8,64c0.1,1.6-1.1,2.9-3.1,2.9c-1.7,0-2.9-1.3-2.9-2.9c0-1.7,1.3-3,3-3C41.7,61,42.8,62.3,42.8,64z M37.4,97.8V71.4h4.8v26.4H37.4z"/><path fill="#FFFFFF" d="M47.5,78.6c0-2.7-0.1-5-0.2-7.1h4.3l0.3,4.4h0.1c1.3-2.5,4.4-5,8.8-5c3.7,0,9.4,2.2,9.4,11.2v15.8h-4.8 V82.6c0-4.3-1.6-7.8-6.1-7.8c-3.2,0-5.6,2.2-6.5,4.9c-0.2,0.6-0.3,1.4-0.3,2.2v15.9h-4.8V78.6z"/><path fill="#FFFFFF" d="M84,61.6c2.9-0.4,6.3-0.8,10.1-0.8c6.8,0,11.7,1.6,14.9,4.6c3.3,3,5.2,7.3,5.2,13.2c0,6-1.9,10.9-5.3,14.3 c-3.4,3.4-9.1,5.3-16.3,5.3c-3.4,0-6.2-0.2-8.6-0.4V61.6z M88.8,94.1c1.2,0.2,3,0.3,4.8,0.3c10.2,0,15.7-5.7,15.7-15.6 c0.1-8.7-4.9-14.2-14.9-14.2c-2.5,0-4.3,0.2-5.6,0.5V94.1z"/><path fill="#FFFFFF" d="M132.1,97.8l-0.4-3.3h-0.2c-1.5,2.1-4.3,3.9-8.1,3.9c-5.4,0-8.1-3.8-8.1-7.6c0-6.4,5.7-9.9,15.9-9.8v-0.5 c0-2.2-0.6-6.1-6-6.1c-2.5,0-5,0.8-6.9,2l-1.1-3.2c2.2-1.4,5.4-2.3,8.7-2.3c8.1,0,10.1,5.5,10.1,10.8v9.9c0,2.3,0.1,4.5,0.4,6.3 H132.1z M131.4,84.4c-5.3-0.1-11.2,0.8-11.2,5.9c0,3.1,2.1,4.6,4.5,4.6c3.4,0,5.6-2.2,6.4-4.4c0.2-0.5,0.3-1,0.3-1.5V84.4z"/><path fill="#FFFFFF" d="M146.6,63.9v7.6h6.9v3.7h-6.9v14.2c0,3.3,0.9,5.1,3.6,5.1c1.3,0,2.2-0.2,2.8-0.3l0.2,3.6 c-0.9,0.4-2.4,0.7-4.3,0.7c-2.2,0-4-0.7-5.2-2c-1.4-1.4-1.9-3.8-1.9-6.9V75.1h-4.1v-3.7h4.1v-6.3L146.6,63.9z"/><path fill="#FFFFFF" d="M171.4,97.8l-0.4-3.3h-0.2c-1.5,2.1-4.3,3.9-8.1,3.9c-5.4,0-8.1-3.8-8.1-7.6c0-6.4,5.7-9.9,15.9-9.8v-0.5 c0-2.2-0.6-6.1-6-6.1c-2.5,0-5,0.8-6.9,2l-1.1-3.2c2.2-1.4,5.4-2.3,8.7-2.3c8.1,0,10.1,5.5,10.1,10.8v9.9c0,2.3,0.1,4.5,0.4,6.3 H171.4z M170.7,84.4c-5.3-0.1-11.2,0.8-11.2,5.9c0,3.1,2.1,4.6,4.5,4.6c3.4,0,5.6-2.2,6.4-4.4c0.2-0.5,0.3-1,0.3-1.5V84.4z"/></g></g></a></g><a href="https://ourworldindata.org/grapher/public-expenditure-on-healthcare-by-country-income-groups" target="_blank"><text font-size="27.00" x="15.0" y="36.6" fill="#555"><tspan x="15" y="36.6">Public expenditure on healthcare by country income groups</tspan></text></a><text font-size="14.40" x="15.0" y="55.5" fill="#666"><tspan x="15" y="55.519999999999996">Public expenditure on healthcare as percent of total healthcare expenditure. Countries are grouped as per the World</tspan><tspan x="15" y="71.36">Bank's GDP per capita classification.</tspan></text></g><g class="LineChart"><defs><clipPath id="boundsClip-465"><rect x="42.562" y="0" width="830" height="925.2"></rect></clipPath></defs><g class="AxisBoxView"><g class="HorizontalAxis"><text x="52.6" y="556.5" fill="#666" text-anchor="middle" font-size="16.2">1995</text><text x="216" y="556.5" fill="#666" text-anchor="middle" font-size="16.2">2000</text><text x="379.4" y="556.5" fill="#666" text-anchor="middle" font-size="16.2">2005</text><text x="542.9" y="556.5" fill="#666" text-anchor="middle" font-size="16.2">2010</text><text x="673.6" y="556.5" fill="#666" text-anchor="middle" font-size="16.2">2014</text></g><g class="VerticalAxis"><text x="47.56" y="535.3" fill="#666" dominant-baseline="middle" text-anchor="end" font-size="16.2">0%</text><text x="47.56" y="465.7" fill="#666" dominant-baseline="middle" text-anchor="end" font-size="16.2">10%</text><text x="47.56" y="396" fill="#666" dominant-baseline="middle" text-anchor="end" font-size="16.2">20%</text><text x="47.56" y="326.4" fill="#666" dominant-baseline="middle" text-anchor="end" font-size="16.2">30%</text><text x="47.56" y="256.8" fill="#666" dominant-baseline="middle" text-anchor="end" font-size="16.2">40%</text><text x="47.56" y="187.2" fill="#666" dominant-baseline="middle" text-anchor="end" font-size="16.2">50%</text><text x="47.56" y="117.5" fill="#666" dominant-baseline="middle" text-anchor="end" font-size="16.2">60%</text></g><g class="AxisGridLines"><line x1="52.56" y1="535.3" x2="673.63" y2="535.3" stroke="#ccc"></line><line x1="52.56" y1="465.7" x2="673.63" y2="465.7" stroke="#ddd" stroke-dasharray="3,2"></line><line x1="52.56" y1="396" x2="673.63" y2="396" stroke="#ddd" stroke-dasharray="3,2"></line><line x1="52.56" y1="326.4" x2="673.63" y2="326.4" stroke="#ddd" stroke-dasharray="3,2"></line><line x1="52.56" y1="256.8" x2="673.63" y2="256.8" stroke="#ddd" stroke-dasharray="3,2"></line><line x1="52.56" y1="187.2" x2="673.63" y2="187.2" stroke="#ddd" stroke-dasharray="3,2"></line><line x1="52.56" y1="117.5" x2="673.63" y2="117.5" stroke="#ddd" stroke-dasharray="3,2"></line></g><g class="AxisGridLines"><line x1="52.6" y1="535.30" x2="52.6" y2="93.90" stroke="#ddd" stroke-dasharray="3,2"></line><line x1="216" y1="535.30" x2="216" y2="93.90" stroke="#ddd" stroke-dasharray="3,2"></line><line x1="379.4" y1="535.30" x2="379.4" y2="93.90" stroke="#ddd" stroke-dasharray="3,2"></line><line x1="542.9" y1="535.30" x2="542.9" y2="93.90" stroke="#ddd" stroke-dasharray="3,2"></line></g></g><g clip-path="url(#boundsClip-465)"><g class="HeightedLegend clickable"><g class="legendMark"><rect x="683.632" y="94.3" width="95.20800000000001" height="14.4" fill="#fff" opacity="0"></rect><rect x="683.632" y="100.25" width="10" height="2.5" fill="#2E8B57"></rect><text font-size="14.40" x="698.6" y="105.8" fill="#333"><tspan x="698.632" y="105.82000000000001">High income</tspan></text></g><g class="legendMark"><rect x="683.632" y="145.4" width="151.36800000000002" height="14.4" fill="#fff" opacity="0"></rect><rect x="683.632" y="151.35" width="10" height="2.5" fill="#FFA500"></rect><text font-size="14.40" x="698.6" y="156.9" fill="#333"><tspan x="698.632" y="156.92000000000002">Upper middle income</tspan></text></g><g class="legendMark"><rect x="683.632" y="233.20000000000002" width="92.04" height="14.4" fill="#fff" opacity="0"></rect><rect x="683.632" y="239.15" width="10" height="2.5" fill="#B0171F"></rect><text font-size="14.40" x="698.6" y="244.7" fill="#333"><tspan x="698.632" y="244.72000000000003">Low income</tspan></text></g><g class="legendMark"><rect x="683.632" y="269.6" width="151.36800000000002" height="14.4" fill="#fff" opacity="0"></rect><rect x="683.632" y="275.55" width="10" height="2.5" fill="#FF4500"></rect><text font-size="14.40" x="698.6" y="281.1" fill="#333"><tspan x="698.632" y="281.12">Lower middle income</tspan></text></g></g><g class="Lines"><rect x="53" y="94" width="621" height="441" fill="rgba(255,255,255,0)" opacity="0"></rect><g class="key-Upper-middle-income_0"><path stroke="#FFA500" stroke-linecap="round" d="M53 176L85 182L118 176L151 187L183 193L216 203L249 205L281 202L314 201L347 194L379 196L412 188L445 171L478 166L510 158L543 159L576 155L608 153L641 154L674 153" fill="none" stroke-width="1.5"></path><g fill="#FFA500"><circle cx="53" cy="176" r="2"></circle><circle cx="85" cy="182" r="2"></circle><circle cx="118" cy="176" r="2"></circle><circle cx="151" cy="187" r="2"></circle><circle cx="183" cy="193" r="2"></circle><circle cx="216" cy="203" r="2"></circle><circle cx="249" cy="205" r="2"></circle><circle cx="281" cy="202" r="2"></circle><circle cx="314" cy="201" r="2"></circle><circle cx="347" cy="194" r="2"></circle><circle cx="379" cy="196" r="2"></circle><circle cx="412" cy="188" r="2"></circle><circle cx="445" cy="171" r="2"></circle><circle cx="478" cy="166" r="2"></circle><circle cx="510" cy="158" r="2"></circle><circle cx="543" cy="159" r="2"></circle><circle cx="576" cy="155" r="2"></circle><circle cx="608" cy="153" r="2"></circle><circle cx="641" cy="154" r="2"></circle><circle cx="674" cy="153" r="2"></circle></g></g><g class="key-Lower-middle-income_0"><path stroke="#FF4500" stroke-linecap="round" d="M53 286L85 290L118 297L151 300L183 290L216 292L249 296L281 301L314 305L347 297L379 300L412 289L445 287L478 282L510 282L543 284L576 284L608 278L641 275L674 277" fill="none" stroke-width="1.5"></path><g fill="#FF4500"><circle cx="53" cy="286" r="2"></circle><circle cx="85" cy="290" r="2"></circle><circle cx="118" cy="297" r="2"></circle><circle cx="151" cy="300" r="2"></circle><circle cx="183" cy="290" r="2"></circle><circle cx="216" cy="292" r="2"></circle><circle cx="249" cy="296" r="2"></circle><circle cx="281" cy="301" r="2"></circle><circle cx="314" cy="305" r="2"></circle><circle cx="347" cy="297" r="2"></circle><circle cx="379" cy="300" r="2"></circle><circle cx="412" cy="289" r="2"></circle><circle cx="445" cy="287" r="2"></circle><circle cx="478" cy="282" r="2"></circle><circle cx="510" cy="282" r="2"></circle><circle cx="543" cy="284" r="2"></circle><circle cx="576" cy="284" r="2"></circle><circle cx="608" cy="278" r="2"></circle><circle cx="641" cy="275" r="2"></circle><circle cx="674" cy="277" r="2"></circle></g></g><g class="key-Low-income_0"><path stroke="#B0171F" stroke-linecap="round" d="M53 297L85 303L118 301L151 290L183 299L216 290L249 256L281 265L314 254L347 252L379 239L412 230L445 252L478 246L510 254L543 253L576 246L608 242L641 247L674 240" fill="none" stroke-width="1.5"></path><g fill="#B0171F"><circle cx="53" cy="297" r="2"></circle><circle cx="85" cy="303" r="2"></circle><circle cx="118" cy="301" r="2"></circle><circle cx="151" cy="290" r="2"></circle><circle cx="183" cy="299" r="2"></circle><circle cx="216" cy="290" r="2"></circle><circle cx="249" cy="256" r="2"></circle><circle cx="281" cy="265" r="2"></circle><circle cx="314" cy="254" r="2"></circle><circle cx="347" cy="252" r="2"></circle><circle cx="379" cy="239" r="2"></circle><circle cx="412" cy="230" r="2"></circle><circle cx="445" cy="252" r="2"></circle><circle cx="478" cy="246" r="2"></circle><circle cx="510" cy="254" r="2"></circle><circle cx="543" cy="253" r="2"></circle><circle cx="576" cy="246" r="2"></circle><circle cx="608" cy="242" r="2"></circle><circle cx="641" cy="247" r="2"></circle><circle cx="674" cy="240" r="2"></circle></g></g><g class="key-High-income_0"><path stroke="#2E8B57" stroke-linecap="round" d="M53 94L85 99L118 108L151 117L183 118L216 123L249 124L281 126L314 122L347 118L379 117L412 115L445 112L478 105L510 100L543 100L576 98L608 102L641 102L674 102" fill="none" stroke-width="1.5"></path><g fill="#2E8B57"><circle cx="53" cy="94" r="2"></circle><circle cx="85" cy="99" r="2"></circle><circle cx="118" cy="108" r="2"></circle><circle cx="151" cy="117" r="2"></circle><circle cx="183" cy="118" r="2"></circle><circle cx="216" cy="123" r="2"></circle><circle cx="249" cy="124" r="2"></circle><circle cx="281" cy="126" r="2"></circle><circle cx="314" cy="122" r="2"></circle><circle cx="347" cy="118" r="2"></circle><circle cx="379" cy="117" r="2"></circle><circle cx="412" cy="115" r="2"></circle><circle cx="445" cy="112" r="2"></circle><circle cx="478" cy="105" r="2"></circle><circle cx="510" cy="100" r="2"></circle><circle cx="543" cy="100" r="2"></circle><circle cx="576" cy="98" r="2"></circle><circle cx="608" cy="102" r="2"></circle><circle cx="641" cy="102" r="2"></circle><circle cx="674" cy="102" r="2"></circle></g></g></g></g></g><g style="fill: #777;" class="SourcesFooter"><g style="fill: #777;" class="clickable"><text font-size="12.60" x="15.0" y="581.6"><tspan x="15" y="581.58">Source: World Bank – WDI</tspan></text></g><text font-size="12.60" x="528.1" y="581.6"><tspan x="528.0640000000001" y="581.58"><a target='_blank' style='fill: #777;' href='https://ourworldindata.org/financing-healthcare/'>OurWorldInData.org/financing-healthcare/</a> • <a style="fill: #777;" href="http://creativecommons.org/licenses/by-sa/4.0/deed.en_US" target="_blank">CC BY-SA</a></tspan></text></g></g></svg>
